X:6086
T:Garrucha (Cerredo - Degaa)
C:Trad.
P:ABBC
M:3/4
L:1/4
Q:1/4=192
K:C
P:A
|G c e|g f/e/ d-|d d e|f g/f/ e-|e c d|e f/e/ d-|d e/f/ e/d/|c3|
P:B
|: G c d|e f/e/ d-|d d e|f g/f/ e-|e c d|e f/e/ d-|d e/f/ e/d/|1 c3 :|2 c z c|c G G|
|: c e f|g a/g/ f-|f f g|a b/a/ g-|g e f|g a/g/ f-|f g/f/ e/d/|1 e3 :|2 c3|
|G c d|e f/e/ d-|d g/f/ e/d/|c2 c|c2 c|c c c|
P:C
|c3|
